Sources/FrostedUI/Resources/Icons.xcassets/hashtag32.imageset/hashtag-32.svg

<svg width="32" height="32" viewBox="0 0 32 32" fill="none" xmlns="http://www.w3.org/2000/svg" data-fui-icon="true">
  <path
    d="M25.1348 3.56042C25.2421 3.16048 25.6537 2.92302 26.0537 3.03015C26.4536 3.1375 26.6912 3.54911 26.584 3.9491L24.9619 10.0018H29.9902C30.4043 10.0018 30.74 10.3378 30.7402 10.7518C30.7402 11.166 30.4044 11.5018 29.9902 11.5018H24.5605L21.9336 21.3055H27.2988C27.7129 21.3056 28.0486 21.6415 28.0488 22.0555C28.0488 22.4697 27.713 22.8055 27.2988 22.8055H21.5312L19.9492 28.7098C19.8419 29.1097 19.4303 29.3473 19.0303 29.2401C18.6303 29.1328 18.3928 28.7212 18.5 28.3212L19.9775 22.8055H8.61328L7.03125 28.7098C6.92393 29.1096 6.51217 29.347 6.1123 29.2401C5.71228 29.1329 5.47485 28.7212 5.58203 28.3212L7.05957 22.8055H2C1.58579 22.8055 1.25 22.4698 1.25 22.0555C1.25024 21.6415 1.58594 21.3055 2 21.3055H7.46191L10.0889 11.5018H4.69141C4.27719 11.5018 3.94141 11.166 3.94141 10.7518C3.94164 10.3378 4.27734 10.0018 4.69141 10.0018H10.4912L12.2168 3.56042C12.3241 3.16053 12.7358 2.92297 13.1357 3.03015C13.5354 3.13764 13.7731 3.54927 13.666 3.9491L12.0439 10.0018H23.4092L25.1348 3.56042ZM9.01562 21.3055H20.3799L23.0068 11.5018H11.6426L9.01562 21.3055Z"
    fill="currentColor"
  />
</svg>

<svg xmlns="http://www.w3.org/2000/svg" width="32" height="32" fill="none" data-fui-icon="true" viewBox="0 0 32 32"><path fill="currentColor" d="M25.135 3.56a.75.75 0 0 1 1.449.39l-1.622 6.052h5.028a.75.75 0 0 1 0 1.5h-5.43l-2.626 9.803h5.365a.75.75 0 0 1 0 1.5H21.53L19.95 28.71a.75.75 0 0 1-1.449-.389l1.477-5.516H8.613L7.031 28.71a.751.751 0 0 1-1.449-.389l1.478-5.516H2a.75.75 0 1 1 0-1.5h5.462l2.627-9.803H4.69a.75.75 0 0 1 0-1.5h5.8l1.726-6.442a.75.75 0 0 1 1.449.39l-1.622 6.052h11.365zM9.015 21.306H20.38l2.627-9.804H11.643z"/></svg>
